ferriswheel.svg

<?xml version="1.0" encoding="UTF-8" standalone="no" ?>
<!DOCTYPE svg PUBLIC "-//W3C//DTD SVG 1.1//EN" "http://www.w3.org/Graphics/SVG/1.1/DTD/svg11.dtd">
<svg xmlns="http://www.w3.org/2000/svg" xmlns:xlink="http://www.w3.org/1999/xlink" version="1.1" width="1080" height="1080" viewBox="0 0 1080 1080" xml:space="preserve">
<desc>Created with Fabric.js 5.2.4</desc>
<defs>
</defs>
<g transform="matrix(1 0 0 1 540 540)" id="3de524cb-f1e6-424e-bf70-3093da6436a5"  >
<rect style="stroke: none; stroke-width: 1; stroke-dasharray: none; stroke-linecap: butt; stroke-dashoffset: 0; stroke-linejoin: miter; stroke-miterlimit: 4; fill: rgb(255,255,255); fill-rule: nonzero; opacity: 1;" vector-effect="non-scaling-stroke"  x="-540" y="-540" rx="0" ry="0" width="1080" height="1080" />
</g>
<g transform="matrix(1 0 0 1 540 540)" id="075ccc5f-009a-468e-81a7-cbca90a7e937"  >
</g>
<g transform="matrix(1 0 0 1 540 540)"  >
<g style="" vector-effect="non-scaling-stroke"   >
		<g transform="matrix(12.5 0 0 12.5 0 -75)"  >
<path style="stroke: none; stroke-width: 1; stroke-dasharray: none; stroke-linecap: butt; stroke-dashoffset: 0; stroke-linejoin: miter; stroke-miterlimit: 4; fill: rgb(208,208,208); fill-rule: nonzero; opacity: 1;" vector-effect="non-scaling-stroke"  transform=" translate(-32, -27)" d="M 32 2 C 18.2 2 7 13.2 7 27 C 7 40.8 18.2 52 32 52 C 45.8 52 57 40.8 57 27 C 57 13.200000000000003 45.8 2 32 2 M 32 49 C 19.9 49 10 39.2 10 27 C 10 14.799999999999997 19.9 5 32 5 C 44.1 5 54 14.9 54 27 C 54 39.1 44.2 49 32 49" stroke-linecap="round" />
</g>
		<g transform="matrix(12.5 0 0 12.5 0 -75)" id="IconifyId17ecdb2904d178eab26113"  >
<path style="stroke: none; stroke-width: 1; stroke-dasharray: none; stroke-linecap: butt; stroke-dashoffset: 0; stroke-linejoin: miter; stroke-miterlimit: 4; fill: rgb(208,208,208); fill-rule: nonzero; opacity: 1;" vector-effect="non-scaling-stroke"  transform=" translate(-32, -27)" d="M 8 26 L 56 26 L 56 28 L 8 28 z" stroke-linecap="round" />
</g>
		<g transform="matrix(12.5 0 0 12.5 0 -75)" id="IconifyId17ecdb2904d178eab26114"  >
<path style="stroke: none; stroke-width: 1; stroke-dasharray: none; stroke-linecap: butt; stroke-dashoffset: 0; stroke-linejoin: miter; stroke-miterlimit: 4; fill: rgb(208,208,208); fill-rule: nonzero; opacity: 1;" vector-effect="non-scaling-stroke"  transform=" translate(-32, -27)" d="M 31 3 L 33 3 L 33 51 L 31 51 z" stroke-linecap="round" />
</g>
		<g transform="matrix(8.84 -8.84 8.84 8.84 0 -75)"  >
<path style="stroke: none; stroke-width: 1; stroke-dasharray: none; stroke-linecap: butt; stroke-dashoffset: 0; stroke-linejoin: miter; stroke-miterlimit: 4; fill: rgb(208,208,208); fill-rule: nonzero; opacity: 1;" vector-effect="non-scaling-stroke"  transform=" translate(-32, -27)" d="M 31 3 L 33 3 L 33 51 L 31 51 z" stroke-linecap="round" />
</g>
		<g transform="matrix(8.84 -8.84 8.84 8.84 0 -75)"  >
<path style="stroke: none; stroke-width: 1; stroke-dasharray: none; stroke-linecap: butt; stroke-dashoffset: 0; stroke-linejoin: miter; stroke-miterlimit: 4; fill: rgb(208,208,208); fill-rule: nonzero; opacity: 1;" vector-effect="non-scaling-stroke"  transform=" translate(-32, -27)" d="M 8 26 L 56 26 L 56 28 L 8 28 z" stroke-linecap="round" />
</g>
		<g transform="matrix(12.5 0 0 12.5 0 -75)"  >
<circle style="stroke: none; stroke-width: 1; stroke-dasharray: none; stroke-linecap: butt; stroke-dashoffset: 0; stroke-linejoin: miter; stroke-miterlimit: 4; fill: rgb(62,67,71); fill-rule: nonzero; opacity: 1;" vector-effect="non-scaling-stroke"  cx="0" cy="0" r="8.2" />
</g>
		<g transform="matrix(12.5 0 0 12.5 0 -75)"  >
<circle style="stroke: none; stroke-width: 1; stroke-dasharray: none; stroke-linecap: butt; stroke-dashoffset: 0; stroke-linejoin: miter; stroke-miterlimit: 4; fill: rgb(148,152,155); fill-rule: nonzero; opacity: 1;" vector-effect="non-scaling-stroke"  cx="0" cy="0" r="5.5" />
</g>
		<g transform="matrix(12.5 0 0 12.5 0 -313.75)"  >
<path style="stroke: none; stroke-width: 1; stroke-dasharray: none; stroke-linecap: butt; stroke-dashoffset: 0; stroke-linejoin: miter; stroke-miterlimit: 4; fill: rgb(237,76,92); fill-rule: nonzero; opacity: 1;" vector-effect="non-scaling-stroke"  transform=" translate(-32, -7.9)" d="M 34.9 2.8 L 32.8 2.8 C 32.8 2.4 32.4 1.9999999999999998 31.999999999999996 1.9999999999999998 C 31.599999999999994 1.9999999999999998 31.199999999999996 2.4 31.199999999999996 2.8 L 29.099999999999994 2.8 C 27.599999999999994 2.8 26.499999999999993 4 26.499999999999993 5.4 L 26.499999999999993 11.2 C 26.499999999999993 12.7 27.699999999999992 13.799999999999999 29.099999999999994 13.799999999999999 L 34.89999999999999 13.799999999999999 C 36.39999999999999 13.799999999999999 37.49999999999999 12.6 37.49999999999999 11.2 L 37.49999999999999 5.4 C 37.49999999999999 4 36.39999999999999 2.8000000000000003 34.89999999999999 2.8000000000000003 M 36 8.3 L 28 8.3 L 28 5.4 C 28 4.800000000000001 28.5 4.300000000000001 29.1 4.300000000000001 L 34.9 4.300000000000001 C 35.5 4.300000000000001 36 4.800000000000001 36 5.4 L 36 8.3" stroke-linecap="round" />
</g>
		<g transform="matrix(12.5 0 0 12.5 0.62 -278.75)"  >
<path style="stroke: none; stroke-width: 1; stroke-dasharray: none; stroke-linecap: butt; stroke-dashoffset: 0; stroke-linejoin: miter; stroke-miterlimit: 4; fill: rgb(62,67,71); fill-rule: nonzero; opacity: 1;" vector-effect="non-scaling-stroke"  transform=" translate(-32.05, -10.7)" d="M 26.5 9.9 L 37.6 9.9 L 37.6 11.5 L 26.5 11.5 z" stroke-linecap="round" />
</g>
		<g transform="matrix(12.5 0 0 12.5 0 287.5)"  >
<path style="stroke: none; stroke-width: 1; stroke-dasharray: none; stroke-linecap: butt; stroke-dashoffset: 0; stroke-linejoin: miter; stroke-miterlimit: 4; fill: rgb(237,76,92); fill-rule: nonzero; opacity: 1;" vector-effect="non-scaling-stroke"  transform=" translate(-32, -56)" d="M 34.9 50.9 L 32.8 50.9 C 32.8 50.5 32.5 50.1 31.999999999999996 50.1 C 31.499999999999993 50.1 31.199999999999996 50.4 31.199999999999996 50.9 L 29.099999999999994 50.9 C 27.599999999999994 50.9 26.499999999999993 52.1 26.499999999999993 53.5 L 26.499999999999993 59.3 C 26.499999999999993 60.8 27.699999999999992 61.9 29.099999999999994 61.9 L 34.89999999999999 61.9 C 36.39999999999999 61.9 37.49999999999999 60.699999999999996 37.49999999999999 59.3 L 37.49999999999999 53.5 C 37.49999999999999 52.1 36.39999999999999 50.9 34.89999999999999 50.9 M 35.99999999999999 56.5 L 27.999999999999993 56.5 L 27.999999999999993 53.6 C 27.999999999999993 53 28.499999999999993 52.5 29.099999999999994 52.5 L 34.89999999999999 52.5 C 35.49999999999999 52.5 35.99999999999999 53 35.99999999999999 53.6 L 35.99999999999999 56.5" stroke-linecap="round" />
</g>
		<g transform="matrix(12.5 0 0 12.5 0.62 322.5)"  >
<path style="stroke: none; stroke-width: 1; stroke-dasharray: none; stroke-linecap: butt; stroke-dashoffset: 0; stroke-linejoin: miter; stroke-miterlimit: 4; fill: rgb(62,67,71); fill-rule: nonzero; opacity: 1;" vector-effect="non-scaling-stroke"  transform=" translate(-32.05, -58.8)" d="M 26.5 58 L 37.6 58 L 37.6 59.6 L 26.5 59.6 z" stroke-linecap="round" />
</g>
		<g transform="matrix(12.5 0 0 12.5 -306.21 -12.5)"  >
<path style="stroke: none; stroke-width: 1; stroke-dasharray: none; stroke-linecap: butt; stroke-dashoffset: 0; stroke-linejoin: miter; stroke-miterlimit: 4; fill: rgb(242,178,0); fill-rule: nonzero; opacity: 1;" vector-effect="non-scaling-stroke"  transform=" translate(-7.5, -32)" d="M 10.4 26.9 L 8.3 26.9 C 8.3 26.5 8 26.099999999999998 7.500000000000001 26.099999999999998 C 7.000000000000002 26.099999999999998 6.700000000000001 26.499999999999996 6.700000000000001 26.9 L 4.6 26.9 C 3.2 26.9 2 28 2 29.5 L 2 35.3 C 2 36.8 3.2 37.9 4.6 37.9 L 10.399999999999999 37.9 C 11.899999999999999 37.9 12.999999999999998 36.699999999999996 12.999999999999998 35.3 L 12.999999999999998 29.499999999999996 C 13.099999999999998 27.999999999999996 11.899999999999999 26.899999999999995 10.399999999999999 26.899999999999995 M 11.499999999999998 32.39999999999999 L 3.4999999999999982 32.39999999999999 L 3.4999999999999982 29.499999999999993 C 3.4999999999999982 28.89999999999999 3.9999999999999982 28.39999999999999 4.599999999999998 28.39999999999999 L 10.399999999999999 28.39999999999999 C 10.999999999999998 28.39999999999999 11.499999999999998 28.89999999999999 11.499999999999998 29.499999999999993 L 11.499999999999998 32.39999999999999" stroke-linecap="round" />
</g>
		<g transform="matrix(12.5 0 0 12.5 -305.63 21.25)"  >
<path style="stroke: none; stroke-width: 1; stroke-dasharray: none; stroke-linecap: butt; stroke-dashoffset: 0; stroke-linejoin: miter; stroke-miterlimit: 4; fill: rgb(62,67,71); fill-rule: nonzero; opacity: 1;" vector-effect="non-scaling-stroke"  transform=" translate(-7.55, -34.7)" d="M 2 33.9 L 13.1 33.9 L 13.1 35.5 L 2 35.5 z" stroke-linecap="round" />
</g>
		<g transform="matrix(12.5 0 0 12.5 306.25 -12.5)"  >
<path style="stroke: none; stroke-width: 1; stroke-dasharray: none; stroke-linecap: butt; stroke-dashoffset: 0; stroke-linejoin: miter; stroke-miterlimit: 4; fill: rgb(66,173,226); fill-rule: nonzero; opacity: 1;" vector-effect="non-scaling-stroke"  transform=" translate(-56.5, -32)" d="M 59.4 26.9 L 57.3 26.9 C 57.3 26.5 57 26.099999999999998 56.5 26.099999999999998 C 56 26.099999999999998 55.7 26.499999999999996 55.7 26.9 L 53.6 26.9 C 52.1 26.9 51 28.099999999999998 51 29.5 L 51 35.3 C 51 36.8 52.2 37.9 53.6 37.9 L 59.4 37.9 C 60.9 37.9 62 36.699999999999996 62 35.3 L 62 29.499999999999996 C 62 27.999999999999996 60.8 26.899999999999995 59.4 26.899999999999995 M 60.4 32.39999999999999 L 52.4 32.39999999999999 L 52.4 29.499999999999993 C 52.4 28.89999999999999 52.9 28.39999999999999 53.5 28.39999999999999 L 59.3 28.39999999999999 C 59.9 28.39999999999999 60.4 28.89999999999999 60.4 29.499999999999993 L 60.4 32.39999999999999" stroke-linecap="round" />
</g>
		<g transform="matrix(12.5 0 0 12.5 305.63 21.25)"  >
<path style="stroke: none; stroke-width: 1; stroke-dasharray: none; stroke-linecap: butt; stroke-dashoffset: 0; stroke-linejoin: miter; stroke-miterlimit: 4; fill: rgb(62,67,71); fill-rule: nonzero; opacity: 1;" vector-effect="non-scaling-stroke"  transform=" translate(-56.45, -34.7)" d="M 50.9 33.9 L 62 33.9 L 62 35.5 L 50.9 35.5 z" stroke-linecap="round" />
</g>
		<g transform="matrix(12.5 0 0 12.5 -212.5 -226.25)"  >
<path style="stroke: none; stroke-width: 1; stroke-dasharray: none; stroke-linecap: butt; stroke-dashoffset: 0; stroke-linejoin: miter; stroke-miterlimit: 4; fill: rgb(66,173,226); fill-rule: nonzero; opacity: 1;" vector-effect="non-scaling-stroke"  transform=" translate(-15, -14.9)" d="M 17.9 9.8 L 15.799999999999999 9.8 C 15.799999999999999 9.4 15.499999999999998 9 14.999999999999998 9 C 14.599999999999998 9 14.199999999999998 9.4 14.199999999999998 9.8 L 12.099999999999998 9.8 C 10.599999999999998 9.8 9.499999999999998 11 9.499999999999998 12.4 L 9.499999999999998 18.2 C 9.499999999999998 19.7 10.699999999999998 20.8 12.099999999999998 20.8 L 17.9 20.8 C 19.4 20.8 20.5 19.6 20.5 18.2 L 20.5 12.399999999999999 C 20.5 10.999999999999998 19.3 9.799999999999999 17.9 9.799999999999999 M 19 15.399999999999999 L 11 15.399999999999999 L 11 12.499999999999998 C 11 11.899999999999999 11.5 11.399999999999999 12.1 11.399999999999999 L 17.9 11.399999999999999 C 18.5 11.399999999999999 19 11.899999999999999 19 12.499999999999998 L 19 15.399999999999999" stroke-linecap="round" />
</g>
		<g transform="matrix(12.5 0 0 12.5 -213.13 -191.25)"  >
<path style="stroke: none; stroke-width: 1; stroke-dasharray: none; stroke-linecap: butt; stroke-dashoffset: 0; stroke-linejoin: miter; stroke-miterlimit: 4; fill: rgb(62,67,71); fill-rule: nonzero; opacity: 1;" vector-effect="non-scaling-stroke"  transform=" translate(-14.95, -17.7)" d="M 9.4 16.9 L 20.5 16.9 L 20.5 18.5 L 9.4 18.5 z" stroke-linecap="round" />
</g>
		<g transform="matrix(12.5 0 0 12.5 212.54 200)"  >
<path style="stroke: none; stroke-width: 1; stroke-dasharray: none; stroke-linecap: butt; stroke-dashoffset: 0; stroke-linejoin: miter; stroke-miterlimit: 4; fill: rgb(242,178,0); fill-rule: nonzero; opacity: 1;" vector-effect="non-scaling-stroke"  transform=" translate(-49, -49)" d="M 51.9 43.9 L 49.8 43.9 C 49.8 43.5 49.5 43.1 49 43.1 C 48.6 43.1 48.2 43.4 48.2 43.9 L 46.1 43.9 C 44.6 43.9 43.5 45.1 43.5 46.5 L 43.5 52.3 C 43.5 53.8 44.7 54.9 46.1 54.9 L 51.9 54.9 C 53.4 54.9 54.5 53.699999999999996 54.5 52.3 L 54.5 46.5 C 54.6 45.1 53.4 43.9 51.9 43.9 M 53 49.4 L 45 49.4 L 45 46.5 C 45 45.9 45.5 45.4 46.1 45.4 L 51.9 45.4 C 52.5 45.4 53 45.9 53 46.5 L 53 49.4" stroke-linecap="round" />
</g>
		<g transform="matrix(12.5 0 0 12.5 213.13 235)"  >
<path style="stroke: none; stroke-width: 1; stroke-dasharray: none; stroke-linecap: butt; stroke-dashoffset: 0; stroke-linejoin: miter; stroke-miterlimit: 4; fill: rgb(62,67,71); fill-rule: nonzero; opacity: 1;" vector-effect="non-scaling-stroke"  transform=" translate(-49.05, -51.8)" d="M 43.5 51 L 54.6 51 L 54.6 52.6 L 43.5 52.6 z" stroke-linecap="round" />
</g>
		<g transform="matrix(12.5 0 0 12.5 -216.21 202.5)"  >
<path style="stroke: none; stroke-width: 1; stroke-dasharray: none; stroke-linecap: butt; stroke-dashoffset: 0; stroke-linejoin: miter; stroke-miterlimit: 4; fill: rgb(131,191,79); fill-rule: nonzero; opacity: 1;" vector-effect="non-scaling-stroke"  transform=" translate(-14.7, -49.2)" d="M 17.6 44.1 L 15.500000000000002 44.1 C 15.500000000000002 43.7 15.200000000000001 43.300000000000004 14.700000000000001 43.300000000000004 C 14.3 43.300000000000004 13.9 43.6 13.9 44.1 L 11.8 44.1 C 10.3 44.1 9.200000000000001 45.300000000000004 9.200000000000001 46.7 L 9.200000000000001 52.5 C 9.200000000000001 54 10.4 55.1 11.8 55.1 L 17.6 55.1 C 19.1 55.1 20.200000000000003 53.9 20.200000000000003 52.5 L 20.200000000000003 46.7 C 20.300000000000004 45.300000000000004 19.1 44.1 17.6 44.1 M 18.700000000000003 49.7 L 10.700000000000003 49.7 L 10.700000000000003 46.800000000000004 C 10.700000000000003 46.2 11.200000000000003 45.7 11.800000000000002 45.7 L 17.6 45.7 C 18.200000000000003 45.7 18.700000000000003 46.2 18.700000000000003 46.800000000000004 L 18.700000000000003 49.7" stroke-linecap="round" />
</g>
		<g transform="matrix(12.5 0 0 12.5 -215.63 237.5)"  >
<path style="stroke: none; stroke-width: 1; stroke-dasharray: none; stroke-linecap: butt; stroke-dashoffset: 0; stroke-linejoin: miter; stroke-miterlimit: 4; fill: rgb(62,67,71); fill-rule: nonzero; opacity: 1;" vector-effect="non-scaling-stroke"  transform=" translate(-14.75, -52)" d="M 9.2 51.2 L 20.299999999999997 51.2 L 20.299999999999997 52.800000000000004 L 9.2 52.800000000000004 z" stroke-linecap="round" />
</g>
		<g transform="matrix(12.5 0 0 12.5 216.88 -228.75)"  >
<path style="stroke: none; stroke-width: 1; stroke-dasharray: none; stroke-linecap: butt; stroke-dashoffset: 0; stroke-linejoin: miter; stroke-miterlimit: 4; fill: rgb(131,191,79); fill-rule: nonzero; opacity: 1;" vector-effect="non-scaling-stroke"  transform=" translate(-49.35, -14.7)" d="M 52.2 9.6 L 50.1 9.6 C 50.1 9.2 49.800000000000004 8.799999999999999 49.300000000000004 8.799999999999999 C 48.800000000000004 8.799999999999999 48.50000000000001 9.1 48.50000000000001 9.6 L 46.400000000000006 9.6 C 44.900000000000006 9.6 43.800000000000004 10.799999999999999 43.800000000000004 12.2 L 43.800000000000004 18 C 43.800000000000004 19.5 45.00000000000001 20.6 46.50000000000001 20.6 L 52.300000000000004 20.6 C 53.800000000000004 20.6 54.900000000000006 19.400000000000002 54.900000000000006 18 L 54.900000000000006 12.2 C 54.800000000000004 10.799999999999999 53.7 9.6 52.2 9.6 M 53.300000000000004 15.1 L 45.300000000000004 15.1 L 45.300000000000004 12.2 C 45.300000000000004 11.6 45.800000000000004 11.1 46.400000000000006 11.1 L 52.2 11.1 C 52.800000000000004 11.1 53.300000000000004 11.6 53.300000000000004 12.2 L 53.300000000000004 15.1" stroke-linecap="round" />
</g>
		<g transform="matrix(12.5 0 0 12.5 215.63 -193.75)"  >
<path style="stroke: none; stroke-width: 1; stroke-dasharray: none; stroke-linecap: butt; stroke-dashoffset: 0; stroke-linejoin: miter; stroke-miterlimit: 4; fill: rgb(62,67,71); fill-rule: nonzero; opacity: 1;" vector-effect="non-scaling-stroke"  transform=" translate(-49.25, -17.5)" d="M 43.7 16.7 L 54.800000000000004 16.7 L 54.800000000000004 18.3 L 43.7 18.3 z" stroke-linecap="round" />
</g>
		<g transform="matrix(12.5 0 0 12.5 0 -75)"  >
<circle style="stroke: none; stroke-width: 1; stroke-dasharray: none; stroke-linecap: butt; stroke-dashoffset: 0; stroke-linejoin: miter; stroke-miterlimit: 4; fill: rgb(237,76,92); fill-rule: nonzero; opacity: 1;" vector-effect="non-scaling-stroke"  cx="0" cy="0" r="2.8" />
</g>
		<g transform="matrix(12.5 0 0 12.5 0 152.5)"  >
<path style="stroke: none; stroke-width: 1; stroke-dasharray: none; stroke-linecap: butt; stroke-dashoffset: 0; stroke-linejoin: miter; stroke-miterlimit: 4; fill: rgb(237,76,92); fill-rule: nonzero; opacity: 1;" vector-effect="non-scaling-stroke"  transform=" translate(-32, -45.2)" d="M 33 26.4 L 31.9 27 L 31 26.5 L 10.6 64 L 13.2 64 L 32 29.2 L 50.8 64 L 53.4 64 z" stroke-linecap="round" />
</g>
</g>
</g>
</svg>

<?xml version="1.0" encoding="utf-8"?>
<!-- Uploaded to: SVG Repo, www.svgrepo.com, Generator: SVG Repo Mixer Tools -->
<svg width="800px" height="800px" viewBox="0 0 64 64" xmlns="http://www.w3.org/2000/svg" xmlns:xlink="http://www.w3.org/1999/xlink" aria-hidden="true" role="img" class="iconify iconify--emojione" preserveAspectRatio="xMidYMid meet">
<path d="M32 2C18.2 2 7 13.2 7 27s11.2 25 25 25s25-11.2 25-25S45.8 2 32 2m0 47c-12.1 0-22-9.8-22-22S19.9 5 32 5s22 9.9 22 22s-9.8 22-22 22" fill="#d0d0d0">
</path>
<path fill="#d0d0d0" d="M8 26h48v2H8z" id="IconifyId17ecdb2904d178eab26113">
</path>
<path fill="#d0d0d0" d="M31 3h2v48h-2z" id="IconifyId17ecdb2904d178eab26114">
</path>
<use transform="rotate(-45.001 32 27)" xlink:href="#IconifyId17ecdb2904d178eab26114">
</use>
<use transform="rotate(-45.001 32 27)" xlink:href="#IconifyId17ecdb2904d178eab26113">
</use>
<circle cx="32" cy="27" r="8.2" fill="#3e4347">
</circle>
<circle cx="32" cy="27" r="5.5" fill="#94989b">
</circle>
<path d="M34.9 2.8h-2.1c0-.4-.4-.8-.8-.8s-.8.4-.8.8h-2.1c-1.5 0-2.6 1.2-2.6 2.6v5.8c0 1.5 1.2 2.6 2.6 2.6h5.8c1.5 0 2.6-1.2 2.6-2.6V5.4c0-1.4-1.1-2.6-2.6-2.6M36 8.3h-8V5.4c0-.6.5-1.1 1.1-1.1h5.8c.6 0 1.1.5 1.1 1.1v2.9" fill="#ed4c5c">
</path>
<path fill="#3e4347" d="M26.5 9.9h11.1v1.6H26.5z">
</path>
<path d="M34.9 50.9h-2.1c0-.4-.3-.8-.8-.8s-.8.3-.8.8h-2.1c-1.5 0-2.6 1.2-2.6 2.6v5.8c0 1.5 1.2 2.6 2.6 2.6h5.8c1.5 0 2.6-1.2 2.6-2.6v-5.8c0-1.4-1.1-2.6-2.6-2.6m1.1 5.6h-8v-2.9c0-.6.5-1.1 1.1-1.1h5.8c.6 0 1.1.5 1.1 1.1v2.9" fill="#ed4c5c">
</path>
<path fill="#3e4347" d="M26.5 58h11.1v1.6H26.5z">
</path>
<path d="M10.4 26.9H8.3c0-.4-.3-.8-.8-.8s-.8.4-.8.8H4.6C3.2 26.9 2 28 2 29.5v5.8c0 1.5 1.2 2.6 2.6 2.6h5.8c1.5 0 2.6-1.2 2.6-2.6v-5.8c.1-1.5-1.1-2.6-2.6-2.6m1.1 5.5h-8v-2.9c0-.6.5-1.1 1.1-1.1h5.8c.6 0 1.1.5 1.1 1.1v2.9" fill="#f2b200">
</path>
<path fill="#3e4347" d="M2 33.9h11.1v1.6H2z">
</path>
<path d="M59.4 26.9h-2.1c0-.4-.3-.8-.8-.8s-.8.4-.8.8h-2.1c-1.5 0-2.6 1.2-2.6 2.6v5.8c0 1.5 1.2 2.6 2.6 2.6h5.8c1.5 0 2.6-1.2 2.6-2.6v-5.8c0-1.5-1.2-2.6-2.6-2.6m1 5.5h-8v-2.9c0-.6.5-1.1 1.1-1.1h5.8c.6 0 1.1.5 1.1 1.1v2.9" fill="#42ade2">
</path>
<path fill="#3e4347" d="M50.9 33.9H62v1.6H50.9z">
</path>
<path d="M17.9 9.8h-2.1c0-.4-.3-.8-.8-.8c-.4 0-.8.4-.8.8h-2.1c-1.5 0-2.6 1.2-2.6 2.6v5.8c0 1.5 1.2 2.6 2.6 2.6h5.8c1.5 0 2.6-1.2 2.6-2.6v-5.8c0-1.4-1.2-2.6-2.6-2.6m1.1 5.6h-8v-2.9c0-.6.5-1.1 1.1-1.1h5.8c.6 0 1.1.5 1.1 1.1v2.9" fill="#42ade2">
</path>
<path fill="#3e4347" d="M9.4 16.9h11.1v1.6H9.4z">
</path>
<path d="M51.9 43.9h-2.1c0-.4-.3-.8-.8-.8c-.4 0-.8.3-.8.8h-2.1c-1.5 0-2.6 1.2-2.6 2.6v5.8c0 1.5 1.2 2.6 2.6 2.6h5.8c1.5 0 2.6-1.2 2.6-2.6v-5.8c.1-1.4-1.1-2.6-2.6-2.6m1.1 5.5h-8v-2.9c0-.6.5-1.1 1.1-1.1h5.8c.6 0 1.1.5 1.1 1.1v2.9" fill="#f2b200">
</path>
<path fill="#3e4347" d="M43.5 51h11.1v1.6H43.5z">
</path>
<path d="M17.6 44.1h-2.1c0-.4-.3-.8-.8-.8c-.4 0-.8.3-.8.8h-2.1c-1.5 0-2.6 1.2-2.6 2.6v5.8c0 1.5 1.2 2.6 2.6 2.6h5.8c1.5 0 2.6-1.2 2.6-2.6v-5.8c.1-1.4-1.1-2.6-2.6-2.6m1.1 5.6h-8v-2.9c0-.6.5-1.1 1.1-1.1h5.8c.6 0 1.1.5 1.1 1.1v2.9" fill="#83bf4f">
</path>
<path fill="#3e4347" d="M9.2 51.2h11.1v1.6H9.2z">
</path>
<path d="M52.2 9.6h-2.1c0-.4-.3-.8-.8-.8s-.8.3-.8.8h-2.1c-1.5 0-2.6 1.2-2.6 2.6V18c0 1.5 1.2 2.6 2.7 2.6h5.8c1.5 0 2.6-1.2 2.6-2.6v-5.8c-.1-1.4-1.2-2.6-2.7-2.6m1.1 5.5h-8v-2.9c0-.6.5-1.1 1.1-1.1h5.8c.6 0 1.1.5 1.1 1.1v2.9" fill="#83bf4f">
</path>
<path fill="#3e4347" d="M43.7 16.7h11.1v1.6H43.7z">
</path>
<g fill="#ed4c5c">
<circle cx="32" cy="27" r="2.8">
</circle>
<path d="M33 26.4l-1.1.6l-.9-.5L10.6 64h2.6L32 29.2L50.8 64h2.6z">
</path>
</g>
</svg>
